svgs/sharp-light/text-height.svg

<svg xmlns="http://www.w3.org/2000/svg" viewBox="0 0 576 512"><!--! Font Awesome Pro 6.6.0 by @fontawesome - https://fontawesome.com License - https://fontawesome.com/license (Commercial License) Copyright 2024 Fonticons, Inc. --><path d="M16 32L0 32 0 48l0 80 0 16 32 0 0-16 0-64 112 0 0 384-64 0-16 0 0 32 16 0 160 0 16 0 0-32-16 0-64 0 0-384 112 0 0 64 0 16 32 0 0-16 0-80 0-16-16 0L16 32zM491.3 44.7L480 33.4 468.7 44.7l-80 80 22.6 22.6L464 94.6l0 322.7-52.7-52.7-22.6 22.6 80 80L480 478.6l11.3-11.3 80-80-22.6-22.6L496 417.4l0-322.7 52.7 52.7 22.6-22.6-80-80z"/></svg>

<svg xmlns="http://www.w3.org/2000/svg" viewBox="0 0 576 512"><!--! Font Awesome Pro 6.4.2 by @fontawesome - https://fontawesome.com License - https://fontawesome.com/license (Commercial License) Copyright 2023 Fonticons, Inc. --><path d="M16 32H0V48v80 16H32V128 64H144l0 384H80 64v32H80 240h16V448H240 176l0-384H288v64 16h32V128 48 32H304 16zM491.3 44.7L480 33.4 468.7 44.7l-80 80 22.6 22.6L464 94.6l0 322.7-52.7-52.7-22.6 22.6 80 80L480 478.6l11.3-11.3 80-80-22.6-22.6L496 417.4l0-322.7 52.7 52.7 22.6-22.6-80-80z"/></svg>
